!!!COM: Bach, Johann Sebastian
!!!OPR: Joh. Seb. Bachs vierstimmige Choralges‰nge
!!!XEN: Four-part Chorales
!!!OTL: 42. Des heil'gen Geistes reiche Gnad'
!!!SCT: BWV 295
!!!SCA: Thematisch-systematisches Verzeichnis der musikalischen Werke Johann Sebastian Bach: Bach-Werke-Verzeichnis (Schmieder)
!!!YOR: Bach Gesellschaft Edition xxxix
!!!ENC: Steven Rasmussen
!!!CDT: 1685/3//-1750/7/28/
!!!OCY: Deutschland
!!!YEC: Copyright (c) 1994, 2000 Center for Computer Assisted Research in the Humanities
!!!YEM: Rights to all derivative editions reserved
!!!YEN: United States of America
**kern	**silbe	**kern	**silbe	**kern	**silbe	**kern	**silbe
*I:[SOPRANO]	*I:[SOPRANO]	*I:[ALTO]	*I:[ALTO]	*I:[TENORE]	*I:[TENORE]	*I:[BASSO]	*I:[BASSO]
*clefG2	*	*clefG2	*	*clefGv2	*	*clefF4	*
*k[b-]	*	*k[b-]	*	*k[b-]	*	*k[b-]	*
*d:	*	*d:	*	*d:	*	*d:	*
*M3/4	*	*M3/4	*	*M3/4	*	*M3/4	*
=1-	=1-	=1-	=1-	=1-	=1-	=1-	=1-
4d	Des	4A	.	8FL	.	8DL	.
.	.	.	.	8GJ	.	8EJ	.
4d	heil'-	4A	.	8AL	.	8FL	.
.	.	.	.	8GJ	.	8EJ	.
4d	-gen	4d	.	4A	.	8FL	.
.	.	.	.	.	.	8DJ	.
=2	=2	=2	=2	=2	=2	=2	=2
2a	Gei-	4e	.	8AL	.	4C#	.
.	.	.	.	8G	.	.	.
.	.	4d	.	8F	.	4D	.
.	.	.	.	8EJ	.	.	.
4a	-stes	4a	.	4D	.	4FF#	.
=3	=3	=3	=3	=3	=3	=3	=3
2b-	rei-	4a	.	2d	.	8GGL	.
.	.	.	.	.	.	8AAJ	.
.	.	8gL	.	.	.	4BB-	.
.	.	8f#J	.	.	.	.	.
4b-	-che	4g	.	4d	.	4GG	.
=4	=4	=4	=4	=4	=4	=4	=4
2.a;	Gnad'	(4g	.	2.d;	.	2.D;	.
.	.	2f;)	.	.	.	.	.
=5	=5	=5	=5	=5	=5	=5	=5
4f	die	4f	.	8AL	.	4D	.
.	.	.	.	8dJ	.	.	.
4g	Her-	8fL	.	8dL	.	4E	.
.	.	8eJ	.	8cJ	.	.	.
4a	-zen	8e-L	.	4c	.	4F#	.
.	.	8dJ	.	.	.	.	.
=6	=6	=6	=6	=6	=6	=6	=6
2.b-	der	4d	der	8B-L	der	4G	.
.	.	.	.	8AJ	.	.	.
.	.	8eL	.	4G	.	8CL	.
.	.	8fJ	.	.	.	8DJ	.
.	.	[4g	A-	4c	A-	4E	.
=7	=7	=7	=7	=7	=7	=7	=7
4a	A-	8gL]	.	4c	-po-	4F	.
.	.	8fJ	.	.	.	.	.
4.g	-po-	4f	-po-	4d	.	4BB-	.
.	.	4e	-stel	8.cL	-stel	4C	.
8f	-stel	.	.	.	.	.	.
.	.	.	.	16B-Jk	.	.	.
=8	=8	=8	=8	=8	=8	=8	=8
2f;	hat	2c;	.	2A;	.	2FF;	.
4g	er-	4e	.	4c	.	4C	.
=9	=9	=9	=9	=9	=9	=9	=9
2a	-f√ºllt	2f	.	2c	.	8FFL	.
.	.	.	.	.	.	8GG	.
.	.	.	.	.	.	8AA	.
.	.	.	.	.	.	8BB-J	.
4g	mit	8eL	.	8cL	.	8CL	.
.	.	8dJ	.	8B-J	.	8DJ	.
=10	=10	=10	=10	=10	=10	=10	=10
2g	sei-	8c#L	sei-	4B-	sei-	8EL	sei-
.	.	8dJ	.	.	.	8DJ	.
.	.	4e	.	8AL	.	4C#	.
.	.	.	.	8BnJ	.	.	.
4a	-ner	[4e	-ner	4c#	.	4AA	-ner
=11	=11	=11	=11	=11	=11	=11	=11
2f	G√º-	4e]	.	4A	-ner	8DL	G√º-
.	.	.	.	.	.	8EJ	.
.	.	8dL	G√º-	4A	G√º-	4F	.
.	.	8c#J	.	.	.	.	.
4f	-tig-	4d	-tig-	4Bn	-tig-	4GG#	-tig-
=12	=12	=12	=12	=12	=12	=12	=12
2.e;	-keit,	(4d	-keit,	(4E	-keit,	2.AA;	-keit,
.	.	2c#;)	.	2A;)	.	.	.
=13	=13	=13	=13	=13	=13	=13	=13
4d	ge-	4d	.	4A	.	8FL	.
.	.	.	.	.	.	8EJ	.
4e	-schenkt	4A	.	4A	.	8DL	.
.	.	.	.	.	.	8C#J	.
4f	der	4d	.	4A	.	[4D	der
=14	=14	=14	=14	=14	=14	=14	=14
2.g	Spra-	4.e	Spra-	4B-	Spra-	4D]	.
.	.	.	.	4A	.	8C#L	Spra-
.	.	8d	.	.	.	8BBn	.
.	.	[4e	-chen	[4A	-chen	8C#	.
.	.	.	.	.	.	8AAJ	.
=15	=15	=15	=15	=15	=15	=15	=15
4f	-chen	8eL]	.	4A]	.	4D	-chen
.	.	8dJ	.	.	.	.	.
4.e	Un-	4d	Un-	4B-	Un-	4GG	Un-
.	.	4c#	-ter-	8.AL	-ter-	4AA	-ter-
8d	-ter-	.	.	.	.	.	.
.	.	.	.	16GJk	.	.	.
=16	=16	=16	=16	=16	=16	=16	=16
2.d;	-scheid.	2.A;	-scheid.	2.F#;	-scheid.	2.DD;	-scheid.
==|!	==|!	==|!	==|!	==|!	==|!	==|!	==|!
*-	*-	*-	*-	*-	*-	*-	*-
!!!RWG: Key is interpreted using the Humdrum key tool.
!!!END: 1994/05/17
!!!EMD: Converted from MuseData to Humdrum Dec 19, 2000, by Andreas Kornstaedt using muse2kern.
!!!EED: Craig Stuart Sapp
!!!EEV: 2024/03/31
!!!ONB: Some non-unicode characters
